X:24
T:Faine I Would (if I could)
T:The King's Complaint
T:Parthenia
M:6/8
P:(AB)3
L:1/8
K:Fdor clef=treble
P:A
[||: "Cm" c'3 "G" =b3|"Cm" c'3 e'3|"Fm" d'2c' c'>d'c'|"Bb" b3-b2 g/2a/2|
"Eb" b>c'b ag2|"Bb" f3 "Eb" g3|"Ab" f2e e>"Bb"fd \
|1 "Eb" e6 :|2 "Eb" e3-e2 B||
P:B
[||: "Bb" B2c d2e|f3-f2 d|"Eb" g2f e>fg/2a/2|"Bb (Gm)" b3-b>c'b|
"F" ag2 f2e|"Bb" d3 "Cm" e'3|"Fm" d'2g "G"c'>d'=b \
|1 "Cm"c'3-c'2 B :|2 "Cm"c'3-c'2 B|]

